X: 1562
T: Downfall of Paris., The
T: scrios b-paris.
N:"Collected from Cronin"
R:Hornpipe
L:1/16
B:O'Neill's 1562
M:2/4
K:G
D2|G2GA G2GA|G2AB cBAG|A2AB A2AB|A2AB cBAG|
B2BA B2BA|Bdgf edcB|A2AB A2AB|ABcA GFED:|
(Bc)|d2dB d2DB"tr"e2d2 c2B2|c2cA c2cA|"tr"d2c2 B2A2|
B2BA B2BA|Bdgf edcB|A2AB A2AB|ABcA GFED|
G2GA G2GA|G2ABcBAG|A2AB A2AB|A2AB cBAG|
BABc dedc|BABc dedc|(3BcdBG (3ABcAF|G2GG G2||
(Bc)|d2ef gfed|Bdge dcBA|G2G2 A2A2|B2B2 A2(Bc)|
d2ef gfed|Bdge dcBA|G2Ac BGAF|G2GG G2:|
(3BAG|F2FG A2AB|c2B2 A2G2|F2FG A2AB|C2B2 A2Bc|
d2ef gfed|Bdge dcBA|G2Ac BGAF|G2GG G2:|


